packages/ui-icons/svg/Solid/copy-course.svg

<svg viewBox="0 0 1920 1920" version="1.1" xmlns="http://www.w3.org/2000/svg">
    <path d="M1468.18348,451.760056 L1468.18348,1919.94353 L1.13686838e-13,1919.94353 L1.13686838e-13,451.760056 L1468.18348,451.760056 Z M1920,0 L1920,1468.29641 L1581.18843,1468.29641 L1581.18843,338.811571 L451.703587,338.811571 L451.703587,0 L1920,0 Z M338.811571,1016.44601 L1129.3719,1016.44601 L1129.3719,903.508817 L338.811571,903.508817 L338.811571,1016.44601 Z M338.811571,1242.32039 L903.497524,1242.32039 L903.497524,1129.3832 L338.811571,1129.3832 L338.811571,1242.32039 Z M338.811571,1468.30771 L1129.3719,1468.30771 L1129.3719,1355.25758 L338.811571,1355.25758 L338.811571,1468.30771 Z" stroke="none" stroke-width="1" fill-rule="evenodd"/>
</svg>

<svg viewBox="0 0 1920 1920" xmlns="http://www.w3.org/2000/svg">
    <path d="M1468.183 451.76v1468.184H0V451.76h1468.183ZM1920 0v1468.296h-338.812V338.812H451.704V0H1920ZM338.812 1016.446h790.56V903.509h-790.56v112.937Zm0 225.874h564.686v-112.937H338.812v112.937Zm0 225.988h790.56v-113.05h-790.56v113.05Z" fill-rule="evenodd"/>
</svg>
